src/app/assets/icons/logout.svg

<svg width="24" height="24" viewBox="0 0 24 24" fill="none" xmlns="http://www.w3.org/2000/svg">
<path d="M5 21C4.45 21 3.97917 20.8042 3.5875 20.4125C3.19583 20.0208 3 19.55 3 19V5C3 4.45 3.19583 3.97917 3.5875 3.5875C3.97917 3.19583 4.45 3 5 3H11C11.2833 3 11.5208 3.09583 11.7125 3.2875C11.9042 3.47917 12 3.71667 12 4C12 4.28333 11.9042 4.52083 11.7125 4.7125C11.5208 4.90417 11.2833 5 11 5H5V19H11C11.2833 19 11.5208 19.0958 11.7125 19.2875C11.9042 19.4792 12 19.7167 12 20C12 20.2833 11.9042 20.5208 11.7125 20.7125C11.5208 20.9042 11.2833 21 11 21H5ZM17.175 13H10C9.71667 13 9.47917 12.9042 9.2875 12.7125C9.09583 12.5208 9 12.2833 9 12C9 11.7167 9.09583 11.4792 9.2875 11.2875C9.47917 11.0958 9.71667 11 10 11H17.175L15.3 9.125C15.1167 8.94167 15.025 8.71667 15.025 8.45C15.025 8.18333 15.1167 7.95 15.3 7.75C15.4833 7.55 15.7167 7.44583 16 7.4375C16.2833 7.42917 16.525 7.525 16.725 7.725L20.3 11.3C20.5 11.5 20.6 11.7333 20.6 12C20.6 12.2667 20.5 12.5 20.3 12.7L16.725 16.275C16.525 16.475 16.2875 16.5708 16.0125 16.5625C15.7375 16.5542 15.5 16.45 15.3 16.25C15.1167 16.05 15.0292 15.8125 15.0375 15.5375C15.0458 15.2625 15.1417 15.0333 15.325 14.85L17.175 13Z" fill="currentColor"/>
</svg>

<svg xmlns="http://www.w3.org/2000/svg" width="24" height="24" fill="none"><path fill="currentColor" d="M5 21q-.824 0-1.412-.587A1.93 1.93 0 0 1 3 19V5q0-.824.587-1.412A1.93 1.93 0 0 1 5 3h6q.424 0 .713.288Q12 3.575 12 4q0 .424-.287.713A.97.97 0 0 1 11 5H5v14h6q.424 0 .713.288.287.287.287.712 0 .424-.287.712A.97.97 0 0 1 11 21zm12.175-8H10a.97.97 0 0 1-.713-.287A.97.97 0 0 1 9 12q0-.424.287-.713A.97.97 0 0 1 10 11h7.175L15.3 9.125a.92.92 0 0 1-.275-.675q0-.4.275-.7a.95.95 0 0 1 .7-.312.95.95 0 0 1 .725.287L20.3 11.3q.3.3.3.7t-.3.7l-3.575 3.575a.93.93 0 0 1-.713.288 1.02 1.02 0 0 1-.712-.313.97.97 0 0 1-.263-.713.98.98 0 0 1 .288-.687z"/></svg>
